!!!!SEGMENT: pl-kk--kk-i-7--084_gorczycki-grzegorz-gerwazy--sancte-deus-sancte-fortis.krn
!!!cenid: 16xx:923
!!!COM: Gorczycki, Grzegorz Gerwazy
!!!COM-rismID: pe30009207
!!!CDT: ~1666-1734/04/30
!!!CNT: Polish
!!!OTL: Sancte Deus sancte fortis
!!!PDT:
!!!AGN: Sacred
!!!SMS-siglum: PL-Kk
!!!SMS-shelfmark: Kk.I.7
!!!SMS-shelfwork: 084 W
!!!SMS-variant:
!!!SMS-altvar:
!!!NIFC-rismSourceID: 300258161
!!!NIFC-islandoraID: pl-kk:1956
!!!URL-pdf-islandora: https://repozytorium.nifc.pl/islandora/object/pl-kk%3A1956/datastream/PDF/view
!!!URL-scan: https://polish.musicsources.pl/pl/lokalizacje/galeria/rekopisy/6140 @EN{Scan on Polish Music Sources Website} @PL{Skany w portalu Dziedzictwo Muzyki Polskiej w otwartym dostępie}
!!!ONB-nifc: UWAGA: C (skan 0072, s.136), A (brak), T(0234, s.131), B(0322, s.130). Następny utwór: Sub tuum praesidium
!!!AIN: 1 alto 1 bass 1 soprn 1 tenor
!!!key:
**kern	**text	**kern	**text	**kern	**kern	**text
*part4	*part4	*part3	*part3	*part2	*part1	*part1
*staff4	*staff4	*staff3	*staff3	*staff2	*staff1	*staff1
*Ibass	*	*Itenor	*	*Ialto	*Isoprn	*
*I"[BASSVS]	*	*I"[TENOR]	*	*I"[ALTVS]	*I"[CANTVS]	*
*I'B.	*	*I'T.	*	*	*I'C.	*
*clefF4	*	*clefC4	*	*	*clefC4	*
*k[b-]	*	*k[b-]	*	*	*k[b-]	*
*B-:	*	*B-:	*	*	*B-:	*
*M2/1	*	*M2/1	*	*	*M2/1	*
*met(C|)	*	*met(C|)	*	*	*met(C|)	*
=1-	=1-	=1-	=1-	=1-	=1-	=1-
*	*	*	*	*	*2\right	*
!LO:TX:a:t=Contra Pestem	!	!	!	!	!	!
!LO:TX:t=P:problem=kreska pseudotaktowa	!	!	!	!	!LO:TX:a:t=Contra Pestem	!
1r	.	1F/	San-	0ryy	2.c\	San-
!	!	!	!	!	!LO:TX:t=P:problem=kreska pseudotaktowa	!
.	.	.	.	.	4B-\	.
*2\right	*	*	*	*	*	*
(2.F\	San-	1F/,	-cte	.	2A/	.
!	!	!	!	!	!LO:TX:t=P:problem=kreska pseudotaktowa	!
.	.	.	.	.	2F/	-cte
!LO:TX:t=P:problem=kreska pseudotaktowa	!	!	!	!	!	!
4E-X\)	.	.	.	.	.	.
=2-	=2-	=2-	=2-	=2-	=2-	=2-
2D/	-cte	1F/	De-	0ryy	4B-\	De-
.	.	.	.	.	4F/	.
!LO:TX:t=P:problem=kreska pseudotaktowa	!	!	!	!	!	!
2BB-/	.	.	.	.	1B-\	.
!	!	!LO:TX:t=P:problem=kreska pseudotaktowa	!	!	!	!
1F\	De-	0F/	-us,	.	.	.
.	.	.	.	.	2A\	.
=3-	=3-	=3-	=3-	=3-	=3-	=3-
!LO:TX:t=P:problem=kreska pseudotaktowa	!	!	!	!	!LO:TX:t=P:problem=kreska pseudotaktowa	!
1BB-/,	-us	.	.	0ryy	1B-\	-us
2r	.	1F/	San-	.	2.c\	San-
!LO:TX:t=P:problem=kreska pseudotaktowa	!	!	!	!	!	!
[<2F\	San-	.	.	.	.	.
.	.	.	.	.	4B-\	.
=4-	=4-	=4-	=4-	=4-	=4-	=4-
!LO:N:xstem:cue	!	!	!	!	!	!
4F\]	.	1F/,	-cte	0ryy	2.A/	.
4E-X\	.	.	.	.	.	.
2.D/	.	.	.	.	.	.
!	!	!	!	!	!LO:TX:t=P:problem=kreska pseudotaktowa	!
.	.	.	.	.	4G/	.
.	.	1F/	For-	.	2F/	-cte
4C/	.	.	.	.	.	.
!LO:TX:t=P:problem=kreska pseudotaktowa	!	!	!	!	!	!
2BB-,/	-cte	.	.	.	1B-\	For-
=5-	=5-	=5-	=5-	=5-	=5-	=5-
!	!	!LO:TX:t=P:problem=kreska pseudotaktowa	!	!	!	!
1F\	For-	0F/	-tis	0ryy	.	.
!	!	!	!	!	!LO:TX:t=P:problem=kreska pseudotaktowa	!
.	.	.	.	.	2A\	.
!LO:TX:t=P:problem=kreska pseudotaktowa	!	!	!	!	!LO:TX:t=P:global:problem=oddech jako rozdzielacz słów, przeważnie na wysokości dźwięku poprzedzającego	!
1BB-/	-tis	.	.	.	2B-,\	-tis
.	.	.	.	.	2B-\	San-
=6-	=6-	=6-	=6-	=6-	=6-	=6-
!LO:TX:t=P:problem=kreska pseudotaktowa	!	!	!	!	!	!
1r	.	1F/	San-	0ryy	2A\	-cte
.	.	.	.	.	4B-\	im-
!	!	!	!	!	!LO:TX:t=P:problem=kreska pseudotaktowa	!
.	.	.	.	.	4B-\	-mor-
!	!	!LO:TX:t=P:problem=kreska pseudotaktowa	!	!	!	!
2r	.	1F/	-cte	.	2A\	-ta-
!LO:TX:t=P:problem=kreska pseudotaktowa	!	!	!	!	!	!
2BB-/	San-	.	.	.	2B-\	.
=7-	=7-	=7-	=7-	=7-	=7-	=7-
2AA,/	-cte	1F/	im-	0ryy	2c\	.
!	!	!	!	!	!LO:TX:t=P:problem=kreska pseudotaktowa	!
4BB-/	Im-	.	.	.	2B-\	-lis.
!LO:TX:t=P:problem=kreska pseudotaktowa	!	!	!	!	!	!
4BB-/	-(m)or-	.	.	.	.	.
2AA/	-ta-	1F/	-mor-	.	2r	.
2BB-/	.	.	.	.	1B-\	mi-
=8-	=8-	=8-	=8-	=8-	=8-	=8-
!LO:TX:t=P:problem=kreska pseudotaktowa	!	!	!	!	!	!
1F\	.	1F/	-ta-	0ryy	.	.
.	.	.	.	.	2A\	-ſe-
!	!	!LO:TX:t=P:problem=kreska pseudotaktowa	!	!	!	!
2BB-,/	-lis	1F/	-lis	.	2B-\	-re-
*	*	*	*	*	*custos:g	*
!	!	!	!	!	!LO:TX:t=P:problem=kreska pseudotaktowa	!
2F\	mi-	.	.	.	2A/	-re
!	!	!	!	!	!LO:LB:g=original	!
=9-	=9-	=9-	=9-	=9-	=9-	=9-
2C/	-ſe-	1G/	mi-	0ryy	2.G/	no-
2.G\	-re-	.	.	.	.	.
.	.	.	.	.	4A\	.
.	.	1G/	-ſe-	.	2Bn\	.
4F\	.	.	.	.	.	.
*custos:D	*	*	*	*	*	*
!LO:TX:t=P:problem=kreska pseudotaktowa	!	!	!	!	!	!
!	!	!	!	!	!LO:TX:t=P:problem=kreska pseudotaktowa	!
[<2E-X\	.	.	.	.	[<2c\	.
!LO:LB:g=original	!	!	!	!	!	!
=10-	=10-	=10-	=10-	=10-	=10-	=10-
!LO:N:xstem:cue	!	!	!	!	!LO:N:xstem:cue	!
4E-\]	.	1G/	-re-	0ryy	4c\]	.
4D\	.	.	.	.	4d\	.
2C,/	-re	.	.	.	2e-X\	.
!LO:TX:t=P:problem=kreska pseudotaktowa	!	!LO:TX:t=P:problem=kreska pseudotaktowa	!	!	!LO:TX:t=P:problem=kreska pseudotaktowa	!
1G\	no-	1G/	-re	.	1d\	.
=11-	=11-	=11-	=11-	=11-	=11-	=11-
2C,/	-bis	1G/	no-	0ryy	2c,\	-bis
2E-X\	mi-	.	.	.	1B-\	mi-
!	!	!LO:TX:a:t=8	!	!	!	!
!	!	!LO:"N:vis=00	!	!	!	!
2BB-/	-ſe-	[y0.F/	-bis.	.	.	.
!LO:TX:t=P:problem=kreska pseudotaktowa	!	!	!	!	!LO:TX:t=P:problem=kreska pseudotaktowa	!
2F\	-re-	.	.	.	2A\	-ſe-
=12-	=12-	=12-	=12-	=12-	=12-	=12-
2BB-,/	-re	.	.	0ryy	1B-\	-re-
!LO:TX:t=P:problem=kreska pseudotaktowa	!	!	!	!	!	!
*	*ij	*	*	*	*	*
2BB-/	mi-	.	.	.	.	.
2FF/	-ſe-	.	.	.	2A\	-re
1BB-/	-re-	.	.	.	1d\	no-
=13-	=13-	=13-	=13-	=13-	=13-	=13-
.	.	00F/_yy	.	0ryy	.	.
!LO:TX:t=P:problem=kreska pseudotaktowa	!	!	!	!	!LO:TX:t=P:problem=kreska pseudotaktowa	!
2AA,/	-re	.	.	.	2c\	.
*	*Xij	*	*	*	*	*
2.BB-/	no-	.	.	.	2.d\	.
!LO:TX:t=P:problem=kreska pseudotaktowa	!	!	!	!	!	!
4C/	.	.	.	.	4c\	.
=14-	=14-	=14-	=14-	=14-	=14-	=14-
2.D\	.	.	.	0ryy	1.B-\	.
!LO:TX:t=P:problem=kreska pseudotaktowa	!	!	!	!	!	!
4E\	.	.	.	.	.	.
1F\	.	.	.	.	.	.
.	.	.	.	.	4A/	.
!	!	!	!	!	!LO:TX:t=P:problem=kreska pseudotaktowa	!
.	.	.	.	.	4G/	.
=15-	=15-	=15-	=15-	=15-	=15-	=15-
0F\;	-bis.	0F/]yy	.	0ryy	0A\;	-bis.
=16:||:-	=16||-	=16||:-	=16||-	=16||-	=16||-	=16||-
*M2/1	*	*M2/1	*	*	*M2/1	*
*met(C|)	*	*met(C|)	*	*	*met(C|)	*
!	!	!	!	!	!LO:TX:t=P:problem=kreska pseudotaktowa	!
(<4BB-/	A	1F/	A	0ryy	1r	.
4C/	.	.	.	.	.	.
4D/	.	.	.	.	.	.
!LO:TX:t=P:problem=kreska pseudotaktowa	!	!	!	!	!	!
4E-X\)	.	.	.	.	.	.
2F\	pes-	1F/	pes-	.	4F/	A
.	.	.	.	.	4G/	.
!LO:TX:t=P:problem=kreska pseudotaktowa	!	!	!	!	!	!
2F\	-te	.	.	.	4A/	.
!	!	!	!	!	!LO:TX:t=P:problem=kreska pseudotaktowa	!
.	.	.	.	.	4B-/	.
=17-	=17-	=17-	=17-	=17-	=17-	=17-
!	!	!LO:TX:t=P:problem=kreska pseudotaktowa	!	!	!	!
4FF/	fa-	1F/	-te	0ryy	2c\	-pes-
4GG/	.	.	.	.	.	.
!	!	!	!	!	!LO:TX:t=P:problem=kreska pseudotaktowa	!
4AA/	.	.	.	.	2c\	-te
!LO:TX:t=P:problem=kreska pseudotaktowa	!	!	!	!	!	!
4FF/	.	.	.	.	.	.
2BB-/	.	1F/	fa-	.	2B-\	fa-
4BB-,/	me	.	.	.	1B-\	-me
!LO:TX:t=P:problem=kreska pseudotaktowa	!	!	!	!	!	!
4BB-/	et	.	.	.	.	.
=18-	=18-	=18-	=18-	=18-	=18-	=18-
*	*	*custos:F	*	*	*	*
!	!	!LO:TX:t=P:problem=kreska pseudotaktowa	!	!	!	!
!	!	!LO:TX:a:t=Contra Pestem	!	!	!	!
2.F\	bel-	1F/	-me	0ryy	.	.
.	.	.	.	.	2A\	et
*custos:D	*	*	*	*	*	*
!LO:TX:t=P:problem=kreska pseudotaktowa	!	!	!	!	!	!
4E-X\	.	.	.	.	.	.
!LO:LB:g=original	!	!LO:LB:g=original	!	!	!	!
4D/	.	1F/	et	.	4B-\	bel-
4C/	.	.	.	.	4F/	.
4D/	.	.	.	.	1B-\	.
!LO:TX:t=P:problem=kreska pseudotaktowa	!	!	!	!	!	!
4BB-/	.	.	.	.	.	.
=19-	=19-	=19-	=19-	=19-	=19-	=19-
1F\	.	1F/	bel-	0ryy	.	.
*	*	*	*	*	*custos:b	*
!	!	!	!	!	!LO:TX:t=P:problem=kreska pseudotaktowa	!
.	.	.	.	.	2A\	.
!LO:TX:t=P:problem=kreska pseudotaktowa	!	!LO:TX:t=P:problem=kreska pseudotaktowa	!	!	!LO:LB:g=original	!
1BB-/,	-lo	1F/	-lo,	.	2B-,\	-lo
.	.	.	.	.	2.B-\	li-
=20-	=20-	=20-	=20-	=20-	=20-	=20-
2.E-X\	li-	1.G/	li-	0ryy	.	.
.	.	.	.	.	4B-\	-be-
.	.	.	.	.	4G/	-ra
!LO:TX:t=P:problem=kreska pseudotaktowa	!	!	!	!	!LO:TX:t=P:problem=kreska pseudotaktowa	!
4E-\	-be-	.	.	.	4G/	nos
4C,/	-ra	.	.	.	2c\	Do-
4C/	nos	.	.	.	.	.
1G\	Do-	2G/	-be-	.	2d\	.
=21-	=21-	=21-	=21-	=21-	=21-	=21-
.	.	1G/	-ra	0ryy	2e-X\	.
!LO:TX:t=P:problem=kreska pseudotaktowa	!	!	!	!	!LO:TX:t=P:problem=kreska pseudotaktowa	!
2GG/	-mi-	.	.	.	2d\	-mi-
!	!	!LO:TX:t=P:problem=kreska pseudotaktowa	!	!	!	!
1C/,	-ne	1G/	nos	.	2c,\	-ne
!	!	!	!	!	!LO:TX:t=P:problem=kreska pseudotaktowa	!
.	.	.	.	.	[<2c\	li-
=22-	=22-	=22-	=22-	=22-	=22-	=22-
!	!	!	!	!	!LO:N:xstem:cue	!
2.G\	li-	1.G/	Do-	0ryy	4c\]	.
.	.	.	.	.	4c\	-be-
.	.	.	.	.	4Bn\	-ra
!	!	!	!	!	!LO:TX:t=P:problem=kreska pseudotaktowa	!
4G\	-be-	.	.	.	4B\	nos
2E-X,\	-ra	.	.	.	2c\	Do-
!LO:TX:t=P:problem=kreska pseudotaktowa	!	!	!	!	!	!
2E-\	nos	2G/	-mi-	.	1B-X\	.
=23-	=23-	=23-	=23-	=23-	=23-	=23-
!	!	!LO:TX:a:t=8	!	!	!	!
2.F\	Do-	[y00F/	-ne.	0ryy	.	.
!	!	!	!	!	!LO:TX:t=P:problem=kreska pseudotaktowa	!
.	.	.	.	.	2A\	.
!LO:TX:t=P:problem=kreska pseudotaktowa	!	!	!	!	!	!
4E-X\	.	.	.	.	.	.
4D/	.	.	.	.	4B-\	.
4C/	.	.	.	.	4c\	.
!	!	!	!	!	!LO:TX:t=P:problem=kreska pseudotaktowa	!
1BB-/	.	.	.	.	2d\	.
=24-	=24-	=24-	=24-	=24-	=24-	=24-
.	.	.	.	0ryy	2.c\	.
!LO:TX:t=P:problem=kreska pseudotaktowa	!	!	!	!	!	!
2AA/	.	.	.	.	.	.
.	.	.	.	.	4c\	-mi-
0BB-/	.	.	.	.	(4B-\	-ne
.	.	.	.	.	4A\	.
.	.	.	.	.	4B-\	.
!	!	!	!	!	!LO:TX:t=P:problem=kreska pseudotaktowa	!
.	.	.	.	.	4c\)	.
=25-	=25-	=25-	=25-	=25-	=25-	=25-
.	.	00.F/]	.	0ryy	2.d\	Do-
.	.	.	.	.	4c\	.
!LO:N:xstem:cue:vis	!	!	!	!	!	!
2BB-/	.	.	.	.	2.B-\	.
2BB-/	-mi-	.	.	.	.	.
.	.	.	.	.	4B-\	mi-
=26-	=26-	=26-	=26-	=26-	=26-	=26-
!LO:TX:a:t=repetatur ad \nlibitum	!	!LO:TX:a:t=repetat(ur) \nad libitum	!	!	!LO:TX:a:t=repetat(ur)	!
00FF/;	-ne.	.	.	00ryy	00A\;	-ne.
==:||	==	==:||	==	==	==	==
*-	*-	*-	*-	*-	*-	*-
!!!system-decoration: [(s1,s2,s3,s4)]
!!!RDF**kern: > = above
!!!RDF**kern: < = below
!!!EED: Leszek Kubiak
!!!EEV: 2021-03-22
!!!ENC: Berenika Jozajtis
!!!END: 2021-03-03
